X: 1060
T:Give Us a Drink of Water (A26)
N: page 26
N: heptatonic
M:9/8
L:1/8
R:Slip Jig
K:G
D|"G"GBd gdc BAG|BdB "Am"cAA A2B|"G"GBd gdc BAG|
"D"BcA "G"BGG G2:|d|ggg efg fed|ggg efg a2d|
[1ggg bag fed|efg "D"afd "G"g2:|[2bag "D"agf "G"ged|efg "D"agf "G"g3||
